X: 97
T: Super flumina Babilonis
N: Derived from Mar2088-Super_flumina_Babilonis.krn
C: Johannes Martini
%%abc-version 2.0
%%abcx-abcm2ps-target-version 5.9.1 (29 Sep 2008)
%%abc-creator hum2abc beta
%%abcx-conversion-date 2019/02/17 07:19:42
%%abc-edited-by Jesse Rodin
%%abc-edited-by Chris Gage 02-20-2014
%%abcx-initial-encoding-date 2014/02/22/
%%humdrum-veritas 2763657732
%%humdrum-veritas-data 1820159965
%%linebreak <none>
%%barnumbers 0
L: 1/4
M: 4/2
Q: 1/2=120
%%staves {1 2}
V: 1 clef=treble
V: 2 clef=treble-8
K: C
[V:1] c4c2c2 | 
[V:2] c4e2e2 | 
[V:1] c2c2c4 | 
[V:2] e2e2e4 | 
[V:1] A3Bc2d2- | 
[V:2] c3de2f2- | 
[V:1] d2c4B2 | 
[V:2] f2e2d4 | 
[V:1] c8 ||  
[V:2] c8 ||  
[V:1] c4c4 | 
[V:2] c4e4 | 
[V:1] c2c2c4 | 
[V:2] e2e2e4 | 
[V:1] c2c2B2c2 | 
[V:2] e2c2d2e2 | 
[V:1] d4c4 | 
[V:2] f4c4 | 
[V:1] z4c4 | 
[V:2] z4e4 | 
[V:1] c2c2c4 | 
[V:2] e2e2e4 | 
[V:1] c4A2c2 | 
[V:2] e4c2e2 | 
[V:1] d4c4 ||  
[V:2] f4c4 ||  
[V:1] c2c2c4 | 
[V:2] e2e2e4 | 
[V:1] c4c4 | 
[V:2] e4e4 | 
[V:1] c2c2c2c2 | 
[V:2] e2e2e2e2 | 
[V:1] c4B4 | 
[V:2] e4d4 | 
[V:1] A4B4 | 
[V:2] c4d4 | 
[V:1] c4c4 | 
[V:2] c4e4 | 
[V:1] B4c2d2- | 
[V:2] d4e2f2 | 
[V:1] d2^c2d4 | 
[V:2] e4d4 | 
[V:1] z4c4 | 
[V:2] z4e4 | 
[V:1] c4A3B | 
[V:2] e4c3d | 
[V:1] c2d4c2- | 
[V:2] e2f4e2 | 
[V:1] c2B2c4 ||  
[V:2] d4c4 ||  
[V:1] c4c4 | 
[V:2] c4e4 | 
[V:1] c2c2c2c2 | 
[V:2] e2e2e2e2 | 
[V:1] d4z4 | 
[V:2] d4z4 | 
[V:1] c4c2c2 | 
[V:2] e4e2e2 | 
[V:1] c2c2c4 | 
[V:2] e2e2e4 | 
[V:1] c4c2A2 | 
[V:2] e4e2c2 | 
[V:1] c2d4c2 | 
[V:2] e2f4c2 | 
[V:1] c8 ||  
[V:2] c8 ||  
[V:1] c2c2c4 | 
[V:2] e2e2e4 | 
[V:1] c4c2c2 | 
[V:2] e4e2e2 | 
[V:1] c4B2A2 | 
[V:2] e4d2c2 | 
[V:1] G2c4B2 | 
[V:2] B2c2d4 | 
[V:1] c4z4 | 
[V:2] c4z4 | 
[V:1] c4c4 | 
[V:2] e4e4 | 
[V:1] B4A3B | 
[V:2] d4c3d | 
[V:1] c2d4c2- | 
[V:2] e2f4e2 | 
[V:1] c2B2c4 ||  
[V:2] d4c4 ||  
[V:1] c4c4 | 
[V:2] c4e4 | 
[V:1] c2c2c2c2 | 
[V:2] e2e2e2e2 | 
[V:1] c4c4 | 
[V:2] e4e4 | 
[V:1] c2B2c2d2- | 
[V:2] c2d2e2d2 | 
[V:1] d2^c2d4 | 
[V:2] e4d4 | 
[V:1] z4c2c2 | 
[V:2] z4e2e2 | 
[V:1] c2c2c4 | 
[V:2] e2e2e4 | 
[V:1] c2c2c4 | 
[V:2] e2e2e4 | 
[V:1] A2c2d4 | 
[V:2] c2d2f4 | 
[V:1] c8 ||  
[V:2] c8 ||  
[V:1] c4c2c2 | 
[V:2] e4e2e2 | 
[V:1] c4c2c2 | 
[V:2] e4e2e2 | 
[V:1] c4c4 | 
[V:2] e4e4 | 
[V:1] B2A2G2c2- | 
[V:2] d2c2B2c2 | 
[V:1] c2B2c4 | 
[V:2] d4c4 | 
[V:1] z4c4 | 
[V:2] z4e4 | 
[V:1] c4A2B2 | 
[V:2] e4c2d2 | 
[V:1] A2d4c2- | 
[V:2] c2f4e2 | 
[V:1] c2B2c4 ||  
[V:2] d4c4 ||  
[V:1] c4c4 | 
[V:2] c4e4 | 
[V:1] c2c2c2c2 | 
[V:2] e2e2e2e2 | 
[V:1] c4B4 | 
[V:2] e4d4 | 
[V:1] A2B2c2d2- | 
[V:2] c2d2e2d2 | 
[V:1] d2^c2d4 | 
[V:2] e4d4 | 
[V:1] z4c2c2 | 
[V:2] z4e2e2 | 
[V:1] c2c2c4 | 
[V:2] e2e2e4 | 
[V:1] c2c2A2c2 | 
[V:2] e2e2c2e2 | 
[V:1] d4c4 ||  
[V:2] f4c4 ||  
[V:1] c4c4 | 
[V:2] e4e4 | 
[V:1] c2c2c2c2 | 
[V:2] e2e2e2e2 | 
[V:1] c4c2c2 | 
[V:2] e4e2e2 | 
[V:1] B4A3B | 
[V:2] d4c3d | 
[V:1] c2d4^c2 | 
[V:2] e2d2e4 | 
[V:1] d4z4 | 
[V:2] d4z4 | 
[V:1] c4B4 | 
[V:2] e4d4 | 
[V:1] c2d4c2- | 
[V:2] e2f4e2 | 
[V:1] c2B2c4 ||  
[V:2] d4c4 ||  
[V:1] c4c4 | 
[V:2] c4e4 | 
[V:1] c4c2c2 | 
[V:2] e4e2e2 | 
[V:1] c2c2c4 | 
[V:2] e2e2e4 | 
[V:1] B4c2d2- | 
[V:2] d4e2f2- | 
[V:1] d2c4B2 | 
[V:2] f2e2d4 | 
[V:1] c4z4 | 
[V:2] c4z4 | 
[V:1] c4c4 | 
[V:2] e4e4 | 
[V:1] c2c2c2c2 | 
[V:2] e2e2e2e2 | 
[V:1] c4A3B | 
[V:2] e4c3d | 
[V:1] c2d3cBA | 
[V:2] e2f3edc | 
[V:1] B4c4 ||  
[V:2] d4c4 ||  
[V:1] c2c2c4 | 
[V:2] e2e2e4 | 
[V:1] c4c2B2 | 
[V:2] e4c2d2 | 
[V:1] c2d4c2- | 
[V:2] e2f4e2 | 
[V:1] c2B2c4 | 
[V:2] d4c4 | 
[V:1] z4c2c2 | 
[V:2] z4e2e2 | 
[V:1] c4c2c2 | 
[V:2] e4e2e2 | 
[V:1] c2c2c4 | 
[V:2] e2e2e4 | 
[V:1] B4c4 | 
[V:2] d4c4 | 
[V:1] c4c2c2 | 
[V:2] e4e2e2 | 
[V:1] c2c2c4 | 
[V:2] e2e2e4 | 
[V:1] B4A4 | 
[V:2] d4c4 | 
[V:1] c4c2B2 | 
[V:2] c4c2d2 | 
[V:1] c2d4c2- | 
[V:2] e2f4e2 | 
[V:1] c2B2c4 ||  
[V:2] d4c4 ||  
[V:1] c2c2c4 | 
[V:2] e2e2e4 | 
[V:1] B4c2d2- | 
[V:2] d4e2f2- | 
[V:1] d2c4B2 | 
[V:2] fedcd4 | 
[V:1] c4z4 | 
[V:2] c4z4 | 
[V:1] c4c2c2 | 
[V:2] e4e2e2 | 
[V:1] c4c4 | 
[V:2] e4e4 | 
[V:1] c2c2c4 | 
[V:2] e2e2e4 | 
[V:1] A2d4c2- | 
[V:2] c2d2f2e2 | 
[V:1] c2B2c4 ||  
[V:2] d4c4 ||  
[V:1] c4c2c2 | 
[V:2] e4e2e2 | 
[V:1] c4B2A2 | 
[V:2] e4d2c2 | 
[V:1] G2c4B2 | 
[V:2] B2c2d4 | 
[V:1] c4z4 | 
[V:2] c4z4 | 
[V:1] c4c2c2 | 
[V:2] e4e2e2 | 
[V:1] c4A3B | 
[V:2] e4c3d | 
[V:1] c2d4c2- | 
[V:2] e2f4e2 | 
[V:1] c2B2c4 ||  
[V:2] d4c4 ||  
[V:1] c2c2c2c2 | 
[V:2] e2e2e2e2 | 
[V:1] c2c2c2c2 | 
[V:2] e2e2e2e2 | 
[V:1] c4B2A2 | 
[V:2] e4d2c2 | 
[V:1] G2c4B2 | 
[V:2] B2c2d4 | 
[V:1] c4z4 | 
[V:2] c4z4 | 
[V:1] c2c2c2c2 | 
[V:2] e2e2e2e2 | 
[V:1] c4A2B2 | 
[V:2] e4c2d2 | 
[V:1] c2d4c2- | 
[V:2] e2f4e2 | 
[V:1] c2B2c4 |]  
[V:2] d4c4 |]  



